!! Orlando di Lasso, "Beatus, beatus homo" 2-part polyphony, alla breve;
!! No. 2 from "Examples of Gregorian Chant & Works ...", compiled
!! by Gustave Soderlund, Appleton-Century-Crofts (New York), 1937; pp. 10-11
**kern	**kern
*M4/2	*M4/2
=1	=1
0d	0r
=2	=2
1f	0a
1d	.
=3	=3
2r	1cc
2A	.
2f	1a
2d	.
=4	=4
2.f	2r
.	2d
4e	.
4d	2f
4A	.
2B-	2d
=5	=5
2G	1b-
2.d	.
.	1a
4e	.
4f	.
4d	.
=6	=6
2e	2r
2f	2.a
2d	.
.	4b
2A	4cc
.	4a
=7	=7
2r	2b
2.A	2cc
.	2a
4B	.
4c	2e
4d	.
=8	=8
4e	2r
4f	.
2g	2.e
2c	.
.	4f
[2e	4g
.	4a
=9	=9
4e]	4b
8d	4cc
8c	.
2B	2dd
2c	2g
4F	[2a
4G	.
=10	=10
4A	4a]
4B	8g
.	8f
4c	2e
4A	.
2d	2f
2c#	[2a
=11	=11
4d	2a]
4A	.
2.f	2a
.	2d
4e	.
[2d	2f
=12	=12
2d]	1e
2c#	.
[1d	2r
.	[2a
=13	=13
1d]	2a]
.	2b
2r	1cc
[2A	.
=14	=14
2A]	2a
2B	1g
1c	.
.	4f
.	4e
=15	=15
2A	2cc
2G	2.b
1g	.
.	4cc
.	4dd
.	4b
=16	=16
2e	2cc
2f	1a
1d	.
.	2b-
=17	=17
2r	1a
1f	.
.	2r
2d	[2a
=18	=18
1d	2a]
.	2f
2r	1f
[2d	.
=19	=19
2d]	2r
2B-	1f
1B-	.
.	2d
=20	=20
1f	2d
.	1a
1d	.
.	2f
=21	=21
2e	2g
2f	2a
2d	2b
2c	[2cc
=22	=22
4A	4cc]
4B	4b
4c	2a
4d	.
4e	4g
4d	4a
[2g	4b-
.	4g
=23	=23
4g]	1a
4f	.
2.f	.
.	1g
8e	.
8d	.
2e	.
=24	=24
1f	2r
.	2a
2r	2.f
2d	.
.	4f
=25	=25
2.c	2g
.	2a
4c	.
2d	1b-
2e	.
=26	=26
1f	2a
.	2d
2e	2g
2A	4f
.	4e
=27	=27
2d	2f
4c	2g
4B	.
2c	2r
2d	2f
=28	=28
2r	1.cc
2A	.
[1e	.
.	4b
.	4a
=29	=29
2e]	2g
4d	2a
4c	.
2B	1g
2c	.
=30	=30
2B	2d
2G	2.dd
2.g	.
.	4cc
.	4b
4f	4a
=31	=31
4e	4g
4d	4f
4c	2e
4B	.
2A	2.cc
[2f	.
.	4b
=32	=32
4f]	4a
4e	4g
4d	2a
4c	.
2d	4a
.	4g
4a	4f
4g	4e
=33	=33
4f	4d
4e	4e
2.d	4f
.	4g
.	2.a
4e	.
[2f	.
.	4b
=34	=34
2f]	4cc
.	4a
4e	1dd
4d	.
2e	.
2e	2cc#
=35	=35
0d;	0dd;
==	==
*-	*-
